packages/kaspersky-hexa-ui-icons/src/iconsSVGs/16/NewB2CPortfolioColor.svg

<svg width="16" height="16" viewBox="0 0 16 16" fill="none" xmlns="http://www.w3.org/2000/svg">
<path d="M1.72721 5.26139V10.7364C1.72721 11.2693 2.01175 11.7594 2.47103 12.0247L7.26778 14.7746C7.72258 15.0354 8.27821 15.0354 8.73302 14.7746L13.5298 12.0247C13.989 11.7617 14.2736 11.2693 14.2736 10.7364V5.26139C14.2736 4.7285 13.989 4.23834 13.5298 3.97527L8.73302 1.22541C8.27821 0.964592 7.72258 0.964592 7.26778 1.22541L2.47103 3.97527C2.01175 4.23834 1.72721 4.73075 1.72721 5.26139Z" fill="url(#paint0_linear_14072_2080)"/>
<path d="M8.00032 1.67742C8.1358 1.67742 8.27128 1.72258 8.40677 1.79032L13.239 4.54516C13.4874 4.68065 13.6455 4.95161 13.6455 5.24516V10.7548C13.6455 11.0484 13.4874 11.3194 13.239 11.4548L8.40677 14.2097C8.27128 14.2774 8.1358 14.3226 8.00032 14.3226C7.86483 14.3226 7.72935 14.2774 7.59386 14.2097L2.76161 11.4548C2.51322 11.3194 2.35515 11.0484 2.35515 10.7548V5.24516C2.35515 4.95161 2.51322 4.68065 2.76161 4.54516L7.59386 1.79032C7.72935 1.72258 7.86483 1.67742 8.00032 1.67742ZM8.00032 1C7.75193 1 7.48096 1.06774 7.25515 1.20323L2.4229 3.95806C1.97128 4.22903 1.67773 4.72581 1.67773 5.24516V10.7548C1.67773 11.2968 1.97128 11.771 2.4229 12.0419L7.25515 14.7968C7.48096 14.9323 7.72935 15 8.00032 15C8.27128 15 8.51967 14.9323 8.74548 14.7968L13.5777 12.0419C14.0519 11.771 14.3229 11.2742 14.3229 10.7548V5.24516C14.3229 4.70323 14.0293 4.22903 13.5777 3.95806L8.74548 1.20323C8.51967 1.06774 8.2487 1 8.00032 1Z" fill="black"/>
<path d="M6.19353 10.7097H7.20966V4.6129H6.19353V10.7097ZM10.5064 6.19355H9.24192L7.72902 8.20323V8.7L9.24192 10.7097H10.5064L8.72256 8.45161L10.5064 6.19355Z" fill="black"/>
<defs>
<linearGradient id="paint0_linear_14072_2080" x1="-2.21753" y1="11.2656" x2="10.8331" y2="-2.34569" gradientUnits="userSpaceOnUse">
<stop stop-color="#3DE8CA"/>
<stop offset="1" stop-color="#4DFF88"/>
</linearGradient>
</defs>
</svg>

<svg xmlns="http://www.w3.org/2000/svg" width="16" height="16" fill="none" viewBox="0 0 16 16"><path fill="url(#a)" d="M1.7272 5.2614v5.475c0 .5329.2846 1.023.7438 1.2883l4.7968 2.7499a1.47 1.47 0 0 0 1.4652 0l4.7968-2.7499c.4592-.263.7438-.7554.7438-1.2883v-5.475c0-.5329-.2846-1.023-.7438-1.2861L8.733 1.2254a1.47 1.47 0 0 0-1.4652 0L2.471 3.9753c-.4592.263-.7438.7554-.7438 1.286"/><path fill="#000" d="M8.0003 1.6774c.1355 0 .271.0452.4065.113l4.8322 2.7548c.2484.1354.4065.4064.4065.7v5.5096c0 .2936-.1581.5646-.4065.7l-4.8322 2.7549c-.1355.0677-.271.1129-.4065.1129s-.271-.0452-.4064-.1129l-4.8323-2.7549c-.2484-.1354-.4064-.4064-.4064-.7V5.2452c0-.2936.158-.5645.4064-.7L7.594 1.7903c.1355-.0677.271-.1129.4064-.1129m0-.6774c-.2484 0-.5193.0677-.7451.2032L2.4229 3.9581c-.4516.271-.7452.7677-.7452 1.287v5.5097c0 .542.2936 1.0162.7452 1.2871l4.8323 2.7549Q7.5938 15 8.0003 15t.7452-.2032l4.8322-2.7549c.4742-.2709.7452-.7677.7452-1.2871V5.2452c0-.542-.2936-1.0162-.7452-1.2871L8.7455 1.2032C8.5197 1.0677 8.2487 1 8.0003 1"/><path fill="#000" d="M6.1935 10.7097h1.0162V4.6129H6.1935zm4.3129-4.5161H9.2419L7.729 8.2032V8.7l1.513 2.0097h1.2644l-1.7838-2.258z"/><defs><linearGradient id="a" x1="-2" x2="11" y1="11" y2="-2" gradientUnits="userSpaceOnUse"><stop stop-color="#3de8ca"/><stop offset="1" stop-color="#4dff88"/></linearGradient></defs></svg>
